X:2
T:月光下的凤尾竹
C:施光南曲
C:周成龙编曲
M:3/4
L:1/8
K:G
Q:1/4=88
(CA,) (A,C) C2|(CD) (DE) E2|(ED) (DC) (CA,)|{A,}(C4 DC)|{C}(A,6|A,6)u|(C4G,2)|(C4G2)|E4C2|A,4 D2u|C2{D}E4|(C4G,2)|(C4G2)|(E4A,2)|(C4D2)|{A,}(C6|C6)|]